svg/SJJB-OpenStreetMapIcons/sport/hillclimbing.svg

<?xml version="1.0" encoding="UTF-8" standalone="no"?>
<!-- Created with Inkscape (http://www.inkscape.org/) -->
<svg
   xmlns:dc="http://purl.org/dc/elements/1.1/"
   xmlns:cc="http://creativecommons.org/ns#"
   xmlns:rdf="http://www.w3.org/1999/02/22-rdf-syntax-ns#"
   xmlns:svg="http://www.w3.org/2000/svg"
   xmlns="http://www.w3.org/2000/svg"
   xmlns:sodipodi="http://sodipodi.sourceforge.net/DTD/sodipodi-0.dtd"
   xmlns:inkscape="http://www.inkscape.org/namespaces/inkscape"
   version="1.0"
   width="580"
   height="580"
   id="svg2"
   sodipodi:version="0.32"
   inkscape:version="0.46"
   sodipodi:docname="sport_hillclimbing.svg"
   sodipodi:docbase="s:\Data\FacilityIcons"
   inkscape:output_extension="org.inkscape.output.svg.inkscape">
  <metadata
     id="metadata2975">
    <rdf:RDF>
      <cc:Work
         rdf:about="">
        <dc:format>image/svg+xml</dc:format>
        <dc:type
           rdf:resource="http://purl.org/dc/dcmitype/StillImage" />
			  <cc:license
           rdf:resource="http://web.resource.org/cc/PublicDomain" />
        <dc:language>en</dc:language>
      </cc:Work>
    </rdf:RDF>
  </metadata>
  <sodipodi:namedview
     inkscape:window-height="947"
     inkscape:window-width="1048"
     inkscape:pageshadow="2"
     inkscape:pageopacity="0.0"
     guidetolerance="10.0"
     gridtolerance="10.0"
     objecttolerance="10.0"
     borderopacity="1.0"
     bordercolor="#666666"
     pagecolor="#ffffff"
     id="base"
     inkscape:zoom="0.92167712"
     inkscape:cx="301.5186"
     inkscape:cy="281.19503"
     inkscape:window-x="91"
     inkscape:window-y="25"
     inkscape:current-layer="svg2"
     showgrid="false" />
  <defs
     id="defs4">
    <inkscape:perspective
       sodipodi:type="inkscape:persp3d"
       inkscape:vp_x="0 : 290 : 1"
       inkscape:vp_y="0 : 1000 : 0"
       inkscape:vp_z="580 : 290 : 1"
       inkscape:persp3d-origin="290 : 193.33333 : 1"
       id="perspective2441" />
    <inkscape:perspective
       id="perspective3452"
       inkscape:persp3d-origin="30 : 20 : 1"
       inkscape:vp_z="60 : 30 : 1"
       inkscape:vp_y="0 : 1000 : 0"
       inkscape:vp_x="0 : 30 : 1"
       sodipodi:type="inkscape:persp3d" />
    <symbol
       viewBox="244.5 110 489 219.9"
       id="symbol-university">
      <path
         id="path4460"
         d="M79,43l57,119c0,0,21-96,104-96s124,106,124,106l43-133l82-17L0,17L79,43z" />
      <path
         id="path4462"
         d="M94,176l-21,39"
         stroke-width="20"
         stroke="#000000"
         fill="none" />
      <path
         id="path4464"
         d="M300,19c0,10.5-22.6,19-50.5,19S199,29.5,199,19s22.6-19,50.5-19S300,8.5,300,19z" />
      <path
         id="path4466"
         d="M112,216l-16-38L64,88c0,0-9-8-4-35s16-24,16-24"
         stroke-width="20"
         stroke="#000000"
         ill="none" />
    </symbol>
    <inkscape:perspective
       id="perspective4471"
       inkscape:persp3d-origin="372.04724 : 350.78739 : 1"
       inkscape:vp_z="744.09448 : 526.18109 : 1"
       inkscape:vp_y="0 : 1000 : 0"
       inkscape:vp_x="0 : 526.18109 : 1"
       sodipodi:type="inkscape:persp3d" />
    <inkscape:perspective
       id="perspective4668"
       inkscape:persp3d-origin="6 : 4 : 1"
       inkscape:vp_z="12 : 6 : 1"
       inkscape:vp_y="0 : 1000 : 0"
       inkscape:vp_x="0 : 6 : 1"
       sodipodi:type="inkscape:persp3d" />
  </defs>
  <g
     id="g1327">
    <path
       d="M 66.275,1.768 C 24.94,1.768 1.704,23.139 1.704,66.804 L 1.704,516.927 C 1.704,557.771 22.599,579.156 63.896,579.156 L 515.92,579.156 C 557.227,579.156 578.149,558.841 578.149,516.927 L 578.149,66.804 C 578.149,24.203 557.227,1.768 514.628,1.768 C 514.624,1.768 66.133,1.625 66.275,1.768 z "
       style="fill:#111;stroke:#eee;stroke-width:3.40799999"
       id="path1329" />
  </g>
  <g
     id="layer3"
     inkscape:label="Layout"
     style="display:none;stroke:#757575;stroke-opacity:1"
     transform="matrix(48.14969,0,0,48.14969,-536.27327,-33.306752)">
    <rect
       style="fill:none;stroke:#757575;stroke-width:0.10000000000000001;stroke-miterlimit:4;stroke-dasharray:none;stroke-opacity:1;display:inline"
       id="rect4134"
       width="10"
       height="10"
       x="1"
       y="1" />
    <rect
       style="fill:none;stroke:#757575;stroke-width:0.10000000000000001;stroke-miterlimit:4;stroke-dasharray:none;stroke-opacity:1;display:inline"
       id="rect4136"
       width="8"
       height="8"
       x="2"
       y="2" />
  </g>
  <path
     transform="matrix(14.685839,0,0,14.685839,565.76584,1146.0639)"
     style="font-size:40px;font-style:normal;font-variant:normal;font-weight:normal;font-stretch:normal;text-align:start;line-height:125%;writing-mode:lr-tb;text-anchor:start;fill:#ffffff;fill-opacity:1;stroke:none;stroke-width:1px;stroke-linecap:butt;stroke-linejoin:miter;stroke-opacity:1;font-family:NPSPICT3;-inkscape-font-specification:NPSPICT3"
     d="M -23.182373,-53.468994 L -22.423096,-48.667969 C -22.315691,-47.868 -21.835548,-47.401691 -20.982666,-47.269043 C -20.395933,-47.188476 -19.882628,-47.354898 -19.442749,-47.768311 C -19.002909,-48.18172 -18.822856,-48.681801 -18.902588,-49.268555 L -19.822998,-55.068115 C -19.929625,-55.681712 -20.262877,-56.108551 -20.822754,-56.348633 L -24.98291,-58.228516 L -22.342529,-62.828125 L -21.022949,-61.148438 C -20.916359,-60.988104 -20.75604,-60.868068 -20.541992,-60.78833 L -15.541992,-59.3479 C -15.409366,-59.29499 -15.289737,-59.268542 -15.183105,-59.268555 C -14.809595,-59.268542 -14.489364,-59.415229 -14.222412,-59.708618 C -13.95551,-60.00198 -13.822047,-60.335435 -13.822021,-60.708984 C -13.822047,-61.375473 -14.142278,-61.815333 -14.782715,-62.028564 L -19.102783,-63.307861 L -22.382812,-67.269043 C -22.836116,-67.802062 -23.476171,-68.135313 -24.302979,-68.268799 C -25.742608,-68.481993 -26.822522,-67.975401 -27.542725,-66.749023 L -31.182861,-60.468506 C -31.422941,-60.068101 -31.529549,-59.574938 -31.502686,-58.989014 L -31.383057,-51.028809 L -34.143066,-45.108398 C -34.249679,-44.868328 -34.316004,-44.66854 -34.342041,-44.509033 C -34.422612,-44.002037 -34.316208,-43.55526 -34.022827,-43.168701 C -33.729457,-42.782149 -33.32927,-42.548588 -32.822266,-42.468018 C -31.969408,-42.335372 -31.369637,-42.628747 -31.022949,-43.348145 L -27.982178,-49.828857 C -27.875581,-50.068925 -27.822277,-50.322017 -27.822266,-50.588135 L -27.862549,-55.508789 L -23.182373,-53.468994 z M -6.2219238,-73.388428 L -7.8625488,-65.948242 L -10.662842,-64.788574 L -13.103027,-57.948975 L -10.782471,-52.708496 L -11.422119,-50.668701 L -16.82251,-49.068359 L -17.142334,-46.668457 L -25.742188,-44.548096 L -25.662842,-43.108887 L -4.6630859,-43.108887 C -4.2895856,-43.10889 -3.9760686,-43.235436 -3.7225342,-43.488525 C -3.4690704,-43.74162 -3.3423209,-44.054934 -3.3422852,-44.428467 L -3.3422852,-72.748779 L -6.2219238,-73.388428 z M -22.662354,-68.628906 C -21.942156,-68.628884 -21.315529,-68.888893 -20.782471,-69.408936 C -20.249449,-69.928931 -19.982929,-70.562069 -19.98291,-71.30835 C -19.982929,-72.028539 -20.249449,-72.655369 -20.782471,-73.188843 C -21.315529,-73.722262 -21.942156,-73.988986 -22.662354,-73.989014 C -23.409439,-73.988986 -24.042984,-73.722262 -24.562988,-73.188843 C -25.083022,-72.655369 -25.343031,-72.028539 -25.343018,-71.30835 C -25.343031,-70.562069 -25.083022,-69.928931 -24.562988,-69.408936 C -24.042984,-68.888893 -23.409439,-68.628884 -22.662354,-68.628906 L -22.662354,-68.628906 z M -32.022705,-61.30835 L -28.022461,-68.188232 C -27.755545,-68.641498 -27.848725,-68.988177 -28.302002,-69.228271 L -29.58252,-69.98877 C -30.035816,-70.254859 -30.382496,-70.161272 -30.622559,-69.708008 L -34.622803,-62.828125 C -34.88892,-62.374821 -34.795333,-62.028142 -34.342041,-61.788086 L -33.062744,-61.028809 C -32.609463,-60.761867 -32.262783,-60.855047 -32.022705,-61.30835 L -32.022705,-61.30835 z"
     id="flowRoot3192" />
</svg>

<svg xmlns="http://www.w3.org/2000/svg" viewBox="0 0 580 580"><path d="m66.28 1.768c-41.34 0-64.57 21.371-64.57 65.04v450.12c0 40.844 20.895 62.23 62.19 62.23h452.02c41.31 0 62.23-20.315 62.23-62.23v-450.12c0-42.601-20.922-65.04-63.52-65.04-.004 0-448.5-.143-448.35 0z" fill="#111" stroke="#eee" stroke-width="3.408"/><path transform="matrix(14.68584 0 0 14.68584 565.77 1146.06)" d="m-23.18-53.47l.759 4.801c.107.8.588 1.266 1.44 1.399.587.081 1.1-.086 1.54-.499.44-.413.62-.913.54-1.5l-.92-5.8c-.107-.614-.44-1.04-1-1.281l-4.16-1.88 2.64-4.6 1.32 1.68c.107.16.267.28.481.36l5 1.44c.133.053.252.079.359.079.374 0 .694-.147.961-.44.267-.293.4-.627.4-1 0-.666-.32-1.106-.961-1.32l-4.32-1.279-3.28-3.961c-.453-.533-1.093-.866-1.92-1-1.44-.213-2.52.293-3.24 1.52l-3.64 6.281c-.24.4-.347.894-.32 1.479l.12 7.96-2.76 5.92c-.107.24-.173.44-.199.599-.081.507.026.954.319 1.34.293.387.694.62 1.201.701.853.133 1.453-.161 1.799-.88l3.041-6.481c.107-.24.16-.493.16-.759l-.04-4.921 4.68 2.04m16.96-19.919l-1.641 7.44-2.8 1.16-2.44 6.84 2.321 5.24-.64 2.04-5.4 1.6-.32 2.4-8.6 2.12.079 1.439h21c.374 0 .687-.127.941-.38.253-.253.38-.566.38-.94v-28.32l-2.88-.64m-16.44 4.76c.72 0 1.347-.26 1.88-.78.533-.52.8-1.153.8-1.899 0-.72-.267-1.347-.8-1.88-.533-.533-1.16-.8-1.88-.8-.747 0-1.381.267-1.901.8-.52.533-.78 1.16-.78 1.88 0 .746.26 1.379.78 1.899.52.52 1.154.78 1.901.78m-9.36 7.321l4-6.88c.267-.453.174-.8-.28-1.04l-1.281-.76c-.453-.266-.8-.173-1.04.281l-4 6.88c-.266.453-.173.8.281 1.04l1.279.759c.453.267.8.174 1.04-.28" fill="#fff"/></svg>
